X:17
I:linebreak $
T:Galliard to the Quadro Pavin
C:Richard Allison (fl. 1592 - 1606), Morley's Consort Lessons, 1599 & 1611
M:3/2
L:1/4
K:G major
 |:"G"GA | "G"B3cd2 | "Em"e2"Dm"d2"G"B2 | "C"c6 | c3cBA | "G"B3ABc | "D Em"d4"A"^c2 | 
"D"d6 | d2A2dc | "G"B3cd2 | "Em"e2"Dm G"d4 | "C"c6 | c2c2BA | 
"G"B3B"Am"A2 | "Em"G2"Dsus4"G2F2 | "G"G6 | G4 ::"G"G2 | "D"A4A2 | "D Asus4"d4^c2 | 
"D"d3/f/e"A"d2^c | "D"d4"G"B2 | "C"c3B"Am"A2 | "Em Dsus4"G4F2 | "G"G6 | G4 :| 

